src/assets/freight-category.svg

<svg width="92" height="89" viewBox="0 0 92 89" fill="none" xmlns="http://www.w3.org/2000/svg">
<path fill-rule="evenodd" clip-rule="evenodd" d="M45.9773 4.9045e-05C45.9677 0.00186513 45.9581 0.00377888 45.9486 0.00579013C45.8752 0.00976196 45.8022 0.0193587 45.7303 0.0344959C45.7082 0.037809 45.6861 0.0416377 45.6642 0.0459784C45.6527 0.0496605 45.6412 0.0534881 45.6297 0.0574606C45.5959 0.0667534 45.5623 0.0772861 45.5292 0.0890371C45.5177 0.0927192 45.5062 0.0965468 45.4947 0.100519C45.4754 0.109659 45.4562 0.11923 45.4373 0.129225C45.413 0.140042 45.3891 0.151529 45.3655 0.163672L23.5066 9.55047C23.1963 9.60595 22.9128 9.76192 22.7 9.99433C22.4872 10.2267 22.3568 10.5227 22.3289 10.8365C22.3278 10.848 22.3269 10.8594 22.326 10.8709C22.326 10.8748 22.326 10.8786 22.326 10.8824C22.3172 10.9741 22.3172 11.0664 22.326 11.158V38.7529L1.22545 47.8182C1.0334 47.8523 0.850318 47.9251 0.687351 48.0322C0.524383 48.1393 0.384952 48.2784 0.277558 48.4411C0.269733 48.4525 0.262073 48.464 0.254579 48.4756C0.252659 48.4775 0.250744 48.4794 0.248834 48.4813C0.246914 48.4832 0.244999 48.4851 0.24309 48.487C0.134037 48.6497 0.0594327 48.8329 0.0238665 49.0254C-0.0116998 49.218 -0.00747616 49.4157 0.0362775 49.6066V77.9593C0.036243 77.965 0.036243 77.9708 0.0362775 77.9765C0.036243 77.9823 0.036243 77.988 0.0362775 77.9937C0.0368786 78.0292 0.0387949 78.0646 0.0420223 78.1C0.0626174 78.3651 0.156513 78.6193 0.313236 78.8342C0.469958 79.0491 0.683345 79.2163 0.929591 79.3171L22.8919 88.7469C23.1391 88.917 23.4334 89.0053 23.7335 88.9996C24.0329 89.007 24.3272 88.9207 24.5751 88.7527L46.0003 79.5525L67.4197 88.7469C67.6669 88.917 67.9613 89.0053 68.2613 88.9996C68.5607 89.007 68.855 88.9207 69.1029 88.7527L91.071 79.3171C91.3507 79.2037 91.5876 79.0051 91.7479 78.7495C91.9083 78.4939 91.984 78.1943 91.9643 77.8933V49.6008C92.0098 49.4006 92.0118 49.193 91.9702 48.9919C91.9286 48.7909 91.8443 48.6011 91.723 48.4354C91.6158 48.276 91.4777 48.1398 91.3168 48.0348C91.156 47.9298 90.9757 47.8581 90.7866 47.8239L69.7262 38.7759V11.1293C69.7339 11.0337 69.732 10.9375 69.7205 10.8422C69.6932 10.5279 69.5631 10.2313 69.3502 9.99833C69.1373 9.76535 68.8536 9.60896 68.5428 9.55334L46.6667 0.15219C46.5191 0.0775977 46.3597 0.0290411 46.1956 0.00866085C46.1698 0.00700601 46.1439 0.00604866 46.118 0.00579013C46.0713 0.00157685 46.0243 -0.000339105 45.9773 4.9045e-05ZM46.0233 3.00555L49.4787 4.48964L30.8427 12.4928L27.3958 11.0116L46.0233 3.00555ZM53.1152 6.04836L57.5674 7.96017L38.4315 16.1873C38.0964 16.315 37.8212 16.5635 37.6601 16.8839C37.499 17.2042 37.4637 17.5732 37.5612 17.9182V26.3405L36.3835 24.5694C36.1894 24.278 35.8953 24.0675 35.5568 23.9776C35.2182 23.8878 34.8584 23.9246 34.5452 24.0814L32.816 24.9483V14.7721L53.1152 6.04836ZM61.2038 9.52464L64.6536 11.0059L46.0233 19.0119L42.5678 17.5307L61.2038 9.52464ZM25.1984 13.1932L29.9436 15.2285V27.2763C29.9434 27.5215 30.006 27.7626 30.1254 27.9767C30.2449 28.1908 30.4173 28.3708 30.6261 28.4994C30.8349 28.6281 31.0732 28.7012 31.3183 28.7117C31.5633 28.7222 31.807 28.6698 32.0261 28.5595L34.6974 27.2132L37.7134 31.7602C37.8487 32.0332 38.0673 32.2561 38.3377 32.3967C38.6081 32.5372 38.9163 32.5882 39.2176 32.5422C39.5189 32.4961 39.7977 32.3555 40.0137 32.1406C40.2298 31.9257 40.3718 31.6477 40.4192 31.3468C40.4212 31.3392 40.4231 31.3315 40.425 31.3238C40.4306 31.2829 40.4344 31.2417 40.4365 31.2004C40.4365 31.1927 40.4365 31.1851 40.4365 31.1774C40.4388 31.1306 40.4388 31.0836 40.4365 31.0368V19.7382L44.5871 21.5265V47.1034L25.1984 38.7787V13.1932ZM66.8538 13.1932V38.7529L47.4595 47.0833V21.5237L66.8538 13.1932ZM23.7335 41.2704L27.189 42.7574L8.55292 50.7634L5.10318 49.2765L23.7335 41.2704ZM68.29 41.2819L71.7168 42.7574L53.0807 50.7634L49.6511 49.2879L68.29 41.2819ZM30.8312 44.319L35.2805 46.2308L16.1418 54.4521C15.866 54.5712 15.6345 54.7737 15.4799 55.0312C15.3253 55.2887 15.2554 55.5881 15.2801 55.8874C15.2791 55.9171 15.2791 55.9467 15.2801 55.9764V64.6168L14.1024 62.8371C13.9081 62.545 13.6136 62.334 13.2744 62.2441C12.9352 62.1542 12.5747 62.1916 12.2612 62.3491L10.5263 63.2189V53.0398L30.8312 44.319ZM75.359 44.319L79.8112 46.2308L60.6696 54.4521C60.3986 54.5683 60.1699 54.7651 60.0147 55.0158C59.8595 55.2664 59.7853 55.5587 59.8021 55.853C59.8004 55.8941 59.8004 55.9353 59.8021 55.9764V64.6111L58.6244 62.8399C58.4302 62.5478 58.1357 62.3369 57.7964 62.247C57.4572 62.1571 57.0968 62.1944 56.7832 62.3519L55.0541 63.2189V53.0398L75.359 44.319ZM38.9141 47.7924L42.3696 49.2765L23.7392 57.2854L20.2895 55.7984L38.9141 47.7924ZM83.4419 47.7924L86.8974 49.2765L68.2671 57.2854L64.8116 55.7984L83.4419 47.7924ZM2.90867 51.4552L7.65386 53.4933V65.544C7.6546 65.7887 7.71791 66.0291 7.83778 66.2424C7.95765 66.4558 8.1301 66.6349 8.33876 66.7629C8.54741 66.8909 8.78533 66.9635 9.02994 66.9737C9.27455 66.984 9.51771 66.9315 9.73634 66.8214L12.4134 65.4837L15.5156 70.1628C15.6856 70.4216 15.9347 70.6186 16.2259 70.7243C16.517 70.83 16.8346 70.8388 17.1312 70.7493C17.4277 70.6599 17.6874 70.4771 17.8715 70.228C18.0555 69.979 18.1541 69.6772 18.1524 69.3677V58.003L22.3031 59.7856V85.3683L2.90867 77.0407V51.4581V51.4552ZM47.4365 51.4552L52.1817 53.4933V65.544C52.1824 65.7887 52.2457 66.0291 52.3656 66.2424C52.4855 66.4558 52.6579 66.6349 52.8666 66.7629C53.0752 66.8909 53.3131 66.9635 53.5577 66.9737C53.8024 66.984 54.0455 66.9315 54.2642 66.8214L56.9355 65.4837L59.963 70.048C60.0979 70.3057 60.308 70.5165 60.5655 70.6522C60.8229 70.7879 61.1156 70.8423 61.4046 70.808C61.6937 70.7738 61.9655 70.6526 62.1841 70.4604C62.4027 70.2683 62.5577 70.0144 62.6286 69.7322C62.6371 69.7038 62.6448 69.675 62.6515 69.6461C62.6536 69.6337 62.6555 69.6212 62.6573 69.6088C62.6654 69.5613 62.6712 69.5134 62.6745 69.4652C62.6745 69.4605 62.6745 69.4557 62.6745 69.4509C62.6769 69.4031 62.6769 69.3552 62.6745 69.3074V58.003L66.8251 59.7856V85.3683L47.4365 77.0378V51.4552ZM89.0919 51.4552V77.0378L69.6975 85.3711V59.7885L89.0919 51.4581V51.4552ZM44.5641 51.461V77.0378L25.1754 85.3711V59.7885L44.5641 51.461ZM79.3143 69.3562C79.1357 69.3648 78.9604 69.4067 78.7972 69.4796L73.242 71.8622C73.0685 71.9366 72.9114 72.0445 72.7796 72.1797C72.6478 72.3148 72.5439 72.4746 72.4739 72.6498C72.4039 72.8251 72.3691 73.0124 72.3715 73.2011C72.3739 73.3898 72.4135 73.5762 72.488 73.7496C72.5625 73.923 72.6705 74.08 72.8057 74.2118C72.9409 74.3435 73.1008 74.4473 73.2762 74.5173C73.4515 74.5872 73.639 74.622 73.8278 74.6196C74.0166 74.6171 74.2031 74.5776 74.3766 74.5031L79.929 72.1148C80.2383 71.9838 80.4918 71.7486 80.6455 71.4501C80.7992 71.1516 80.8434 70.8087 80.7703 70.481C80.6972 70.1534 80.5115 69.8617 80.2455 69.6567C79.9795 69.4517 79.65 69.3464 79.3143 69.359V69.3562ZM83.1633 73.6678V73.6735C82.9851 73.6803 82.8098 73.7203 82.6462 73.7912L73.2535 77.6866C72.9008 77.8331 72.6208 78.1137 72.4751 78.4666C72.3294 78.8195 72.3299 79.2158 72.4765 79.5683C72.6232 79.9208 72.904 80.2006 73.2571 80.3462C73.6102 80.4918 74.0067 80.4913 74.3594 80.3447L83.7521 76.4321C84.065 76.3053 84.3231 76.0724 84.4812 75.7742C84.6393 75.4761 84.6873 75.1318 84.6166 74.8019C84.546 74.4719 84.3613 74.1774 84.095 73.97C83.8287 73.7626 83.5007 73.6556 83.1633 73.6678Z" fill="#024EC9"/>
</svg>

<svg width="92" height="89" fill="none" xmlns="http://www.w3.org/2000/svg"><path fill-rule="evenodd" clip-rule="evenodd" d="M45.977 0l-.028.006a1.437 1.437 0 00-.219.028 1.434 1.434 0 00-.066.012 1.448 1.448 0 00-.17.055l-.057.028-.072.035L23.507 9.55a1.436 1.436 0 00-1.181 1.32v.012a1.442 1.442 0 000 .276v27.595l-21.1 9.065a1.437 1.437 0 00-.971.658 3.1 3.1 0 00-.012.011 1.435 1.435 0 00-.207 1.12v28.352a1.43 1.43 0 00.006.141 1.435 1.435 0 00.888 1.217l21.962 9.43c.247.17.541.258.841.253.3.007.594-.08.842-.247L46 79.553l21.42 9.194c.247.17.541.258.841.253.3.007.594-.08.842-.247l21.968-9.436a1.436 1.436 0 00.893-1.424V49.601a1.435 1.435 0 00-.241-1.166 1.434 1.434 0 00-.936-.611l-21.06-9.048V11.129a1.435 1.435 0 00-.007-.287 1.435 1.435 0 00-1.177-1.289L46.667.153a1.437 1.437 0 00-.471-.144 1.437 1.437 0 00-.078-.003 1.435 1.435 0 00-.14-.006zm.046 3.006L49.48 4.49l-18.636 8.003-3.447-1.481 18.627-8.006zm7.092 3.042l4.452 1.912-19.136 8.227a1.436 1.436 0 00-.87 1.731v8.422l-1.178-1.77a1.436 1.436 0 00-1.838-.489l-1.729.867V14.772l20.3-8.724zm8.089 3.477l3.45 1.48-18.63 8.007-3.456-1.481 18.636-8.006zm-36.006 3.668l4.746 2.036v12.047a1.436 1.436 0 002.082 1.284l2.671-1.347 3.016 4.547a1.436 1.436 0 002.706-.413l.006-.023a1.27 1.27 0 00.012-.124v-.023a1.433 1.433 0 000-.14V19.738l4.15 1.788v25.577L25.198 38.78V13.193zm41.656 0v25.56l-19.395 8.33v-25.56l19.395-8.33zM23.734 41.27l3.455 1.487-18.636 8.006-3.45-1.486 18.63-8.007zm44.556.012l3.427 1.475-18.636 8.006-3.43-1.475 18.639-8.006zm-37.459 3.037l4.45 1.912-19.14 8.221a1.436 1.436 0 00-.86 1.435 1.32 1.32 0 000 .09v8.64l-1.179-1.78a1.437 1.437 0 00-1.84-.488l-1.736.87v-10.18l20.305-8.72zm44.528 0l4.452 1.912-19.141 8.221a1.436 1.436 0 00-.868 1.401 1.494 1.494 0 000 .123v8.635l-1.178-1.771a1.436 1.436 0 00-1.84-.488l-1.73.867v-10.18l20.305-8.72zm-36.445 3.473l3.456 1.484-18.63 8.01-3.45-1.488 18.624-8.006zm44.528 0l3.455 1.484-18.63 8.01-3.455-1.488 18.63-8.006zM2.909 51.455l4.745 2.038v12.051a1.434 1.434 0 002.082 1.277l2.677-1.337 3.103 4.679a1.436 1.436 0 002.636-.795V58.003l4.151 1.783v25.582L2.91 77.041V51.455zm44.528 0l4.745 2.038v12.051a1.434 1.434 0 001.376 1.43c.244.01.487-.043.706-.153l2.671-1.337 3.028 4.564a1.436 1.436 0 002.666-.316 1.417 1.417 0 00.028-.123 1.77 1.77 0 00.018-.144v-.014a1.43 1.43 0 000-.144V58.003l4.15 1.783v25.582l-19.389-8.33V51.455zm41.655 0v25.583L69.698 85.37V59.79l19.394-8.33v-.004zm-44.528.006v25.577L25.175 85.37V59.79l19.39-8.328zm34.75 17.895c-.178.009-.354.05-.517.124l-5.555 2.382a1.436 1.436 0 101.135 2.641l5.552-2.388a1.436 1.436 0 00-.615-2.756v-.003zm3.85 4.312v.005a1.438 1.438 0 00-.518.118l-9.392 3.896a1.44 1.44 0 101.105 2.658l9.393-3.913a1.435 1.435 0 00-.589-2.764z" fill="#024EC9"/></svg>
